X: 1
T:Susan MacLeod  "1998.3"
M:C
L:1/8
Q:80
C:Donald MacLeod
S:Strathspey
K:HP
[| {g}e3/2f/2{gef}e3/2d/2{gde}d/2c3/2{GdG}c3/2B/2|
{g}A3/2B/2{gcd}c/2{e}A3/2{g}c/2e3/2{A}e2|
{g}f3/2g/2{fg}f3/2e/2{g}f/2a3/2{g}a3/2f/2|  !
{g}e3/2f/2{gef}e3/2c/2{gfg}f2{ag}a3/2f/2|
{g}e3/2f/2{gef}e3/2d/2{gde}d/2c3/2{GdG}c3/2B/2|
{g}A3/2B/2{gcd}c/2{e}A3/2{g}c/2e3/2{A}e3/2f/2|  !
{ag}a3/2e/2{g}f/2g/2a{ef}e3/2a/2{Gdc}d/2a3/2|
{cd}c3/2a/2{Bd}B/2a3/2A2{GdGe}A|] [|
{d}c/2|  !
{gef}e2{A}e3/2f/2{g}c/2e3/2{A}e3/2c/2|
{g}A3/2B/2{gcd}c/2{e}A3/2{g}c/2e3/2{gcd}c/2{e}A3/2|
{g}f2{gfg}f3/2e/2{g}d/2f3/2{e}f3/2g/2|  !
{ag}a3/2e/2{g}f/2g/2a{ef}e3/2a/2{cd}c/2a3/2|
f/2e/2c{g}e3/2f/2{g}c/2e3/2{A}e3/2c/2|
{g}A3/2B/2{gcd}c/2{e}A3/2{g}c/2e3/2{gcd}c/2{e}A3/2|  !
{ag}a3/2e/2{g}f/2g/2a{ef}e3/2a/2{Gdc}d/2a3/2|
{cd}c3/2a/2{Bd}B/2a3/2A2{GdGe}A|] [|
f/2|  !
{gef}e3/2A/2{gAGAG}A2{gAGAG}A2{gcd}c/2{e}A3/2|
{gcd}c/2{e}A3/2{gAGAG}A2{g}c/2e3/2{A}e3/2a/2|
{fg}f3/2B/2{gBGdG}B2{GdGcG}B2{Gdc}d3/2c/2|  !
{GdGcG}B2{Gdc}d3/2e/2{gfg}f2{g}f/2a3/2|
{ef}e3/2A/2{gAGAG}A2{gAGAG}A2{gcd}c/2{e}A3/2|
{gcd}c/2{e}A3/2{gAGAG}A2{g}c/2e3/2{A}e3/2f/2|  !
{ag}a3/2e/2{g}f/2g/2a{ef}e3/2a/2{Gdc}d/2a3/2|
{cd}c3/2a/2{Bd}B/2a3/2A2{GdGe}A|] [|
e/2|  !
{g}f/2a3/2{g}a3/2c/2{g}c/2e3/2{A}e3/2c/2|
{g}A3/2B/2{gcd}c/2{e}A3/2{g}c/2e3/2{A}e3/2f/2|
{g}f/2a3/2{g}a3/2d/2{g}d/2f3/2{e}f3/2e/2|  !
{ag}a3/2e/2{g}f/2g/2a{cd}c/2a3/2{fg}f3/2e/2|
{g}f/2a3/2{g}a3/2c/2{g}c/2e3/2{A}e3/2c/2|
{g}A3/2B/2{gcd}c/2{e}A3/2{g}c/2e3/2{A}e3/2f/2|  !
{ag}a3/2e/2{g}f/2g/2a{ef}e3/2a/2{Gdc}d/2a3/2|
{cd}c3/2a/2{Bd}B/2a3/2A2{GdGe}A|]
